X: 13
T: the MERRY MERRY MILKE MAIDS
B: "FIFTY OLD ENGLISH FOLK DANCE AIRS", Edgar H. Hunt ed., Schott & Co. Ltd. pub., London 1939
Z: 2004-2014 John Chambers <jc:trillian.mit.edu>
M: 6/8
L: 1/8
K: C
c |\
c>dc G2g | e3- e2c | c>dc G2=B | A3- A2F | F>GA/=B/ c2d | d>cB/A/ G2g |
e>fg d2c | c3- c2 :||: c | e>fg g>fg | e>fg g>fe | f2g a2b | c'6 | c'2g e>fg |
a2f d>ef | g2e c>de | d2B G>AB | c2c A>Bc | d2c B>AG | e>fg (d2c) | c3- c2 :|

%%sep 1 1 500
%%sep 1 1 500
